Simply-Orange-Circles/scalable/apps/distributor-logo-chakra.svg

<svg xmlns="http://www.w3.org/2000/svg" width="48" height="48" viewBox="0 0 12.7 12.7"><path d="M6.34.07a6.29 6.29 0 0 0-6.29 6.3 6.29 6.29 0 0 0 6.3 6.28 6.29 6.29 0 0 0 6.28-6.29A6.29 6.29 0 0 0 6.34.07zM6.32 1l.01.01a5.4 5.4 0 0 1 5.4 5.4 5.4 5.4 0 0 1-5.4 5.41 5.4 5.4 0 0 1-5.41-5.4A5.4 5.4 0 0 1 6.32 1zm.35 1.05a.15.15 0 0 0-.1.05c-.11.1-.07.37.14.94l.3.75c.49 1.22.62 1.7.62 2.16 0 .3-.05.46-.19.6-.13.15-.32.22-.62.24-.16 0-.17 0-.14.02l.17.03c.17.03.53.02.68-.01.7-.15 1.2-.7 1.46-1.59.11-.38.15-.7.16-1.17 0-.5-.05-.77-.18-1.16-.15-.46-.29-.69-.47-.78-.1-.05-.25-.06-.56-.02a4.26 4.26 0 0 1-1.27-.06zm-3.06.71l-.2.01c-.38.04-.55.13-.63.34-.02.04-.06.2-.08.33-.1.43-.16.64-.32.91-.13.24-.13.25-.13.3 0 .14.13.2.47.23.23.02.53.01 1.43-.04.44-.03 1.32-.04 1.55-.02.56.04.9.15 1.1.35.2.2.23.45.11.8l-.03.12c0 .05.1-.13.17-.3a1.6 1.6 0 0 0-.21-1.65 4.07 4.07 0 0 0-3.23-1.38zm1.32 2.25c-.2 0-.42.04-.64.12a4.03 4.03 0 0 0-2.37 2.8c-.06.28-.02.44.12.58.05.05.15.1.35.22.36.19.52.3.8.58l.21.19c.19.1.35-.15.55-.81l.18-.64c.29-1.08.41-1.47.61-1.88.12-.24.22-.4.36-.53.17-.17.32-.24.51-.24a.9.9 0 0 1 .18.02c.1.03.26.1.38.2.06.03.1.06.11.05.01-.01-.28-.28-.39-.35-.3-.2-.62-.31-.96-.3zm5.46.24c-.11 0-.28.08-.52.24-.2.14-.37.27-.9.7-.82.65-1.23.93-1.63 1.13-.54.26-.92.26-1.17-.02a.95.95 0 0 1-.2-.32 6.07 6.07 0 0 0-.05-.15L5.9 6.8v.06a1.84 1.84 0 0 0 .31.88c.1.13.28.3.4.39.27.18.65.3 1.02.35a4.35 4.35 0 0 0 2.96-.85c.34-.27.46-.43.46-.62 0-.1-.02-.17-.16-.45a2.9 2.9 0 0 1-.3-1.03c-.03-.16-.05-.2-.1-.24a.18.18 0 0 0-.1-.03zm-4.73.85l-.15.06c-.62.3-.96.8-1 1.47-.02.49.16 1.1.49 1.66a4.85 4.85 0 0 0 .96 1.15c.25.2.6.41.8.47.16.06.3.04.44-.06.04-.02.14-.11.24-.2.33-.3.49-.4.84-.58.13-.06.23-.12.25-.14.09-.09.05-.2-.1-.35a6.88 6.88 0 0 0-1.2-.82c-.74-.46-1.17-.76-1.45-1-.55-.48-.72-.86-.55-1.21.05-.1.23-.3.36-.39.05-.03.08-.05.07-.06z" fill="#ff7f2a"/></svg>

<?xml version="1.0" encoding="UTF-8" standalone="no"?>
<svg
   xmlns:dc="http://purl.org/dc/elements/1.1/"
   xmlns:cc="http://creativecommons.org/ns#"
   xmlns:rdf="http://www.w3.org/1999/02/22-rdf-syntax-ns#"
   xmlns:svg="http://www.w3.org/2000/svg"
   xmlns="http://www.w3.org/2000/svg"
   xmlns:sodipodi="http://sodipodi.sourceforge.net/DTD/sodipodi-0.dtd"
   xmlns:inkscape="http://www.inkscape.org/namespaces/inkscape"
   width="48"
   height="48"
   viewBox="0 0 12.7 12.7"
   version="1.1"
   id="svg4"
   sodipodi:docname="distributor-logo-chakra.svg"
   inkscape:version="0.92.4 (5da689c313, 2019-01-14)">
  <metadata
     id="metadata10">
    <rdf:RDF>
      <cc:Work
         rdf:about="">
        <dc:format>image/svg+xml</dc:format>
        <dc:type
           rdf:resource="http://purl.org/dc/dcmitype/StillImage" />
        <dc:title></dc:title>
      </cc:Work>
    </rdf:RDF>
  </metadata>
  <defs
     id="defs8" />
  <sodipodi:namedview
     pagecolor="#ffffff"
     bordercolor="#666666"
     borderopacity="1"
     objecttolerance="10"
     gridtolerance="10"
     guidetolerance="10"
     inkscape:pageopacity="0"
     inkscape:pageshadow="2"
     inkscape:window-width="1087"
     inkscape:window-height="480"
     id="namedview6"
     showgrid="false"
     inkscape:zoom="4.9166667"
     inkscape:cx="2.1355932"
     inkscape:cy="24"
     inkscape:window-x="0"
     inkscape:window-y="25"
     inkscape:window-maximized="0"
     inkscape:current-layer="svg4" />
  <path
     d="M 6.34,0.07 A 6.29,6.29 0 0 0 0.05,6.37 6.29,6.29 0 0 0 6.35,12.65 6.29,6.29 0 0 0 12.63,6.36 6.29,6.29 0 0 0 6.34,0.07 Z M 6.32,1 6.33,1.01 a 5.4,5.4 0 0 1 5.4,5.4 5.4,5.4 0 0 1 -5.4,5.41 A 5.4,5.4 0 0 1 0.92,6.42 5.4,5.4 0 0 1 6.32,1 Z M 6.67,2.05 A 0.15,0.15 0 0 0 6.57,2.1 C 6.46,2.2 6.5,2.47 6.71,3.04 l 0.3,0.75 c 0.49,1.22 0.62,1.7 0.62,2.16 0,0.3 -0.05,0.46 -0.19,0.6 -0.13,0.15 -0.32,0.22 -0.62,0.24 -0.16,0 -0.17,0 -0.14,0.02 L 6.85,6.84 C 7.02,6.87 7.38,6.86 7.53,6.83 8.23,6.68 8.73,6.13 8.99,5.24 9.1,4.86 9.14,4.54 9.15,4.07 9.15,3.57 9.1,3.3 8.97,2.91 8.82,2.45 8.68,2.22 8.5,2.13 8.4,2.08 8.25,2.07 7.94,2.11 A 4.26,4.26 0 0 1 6.67,2.05 Z M 3.61,2.76 3.41,2.77 C 3.03,2.81 2.86,2.9 2.78,3.11 2.76,3.15 2.72,3.31 2.7,3.44 2.6,3.87 2.54,4.08 2.38,4.35 2.25,4.59 2.25,4.6 2.25,4.65 2.25,4.79 2.38,4.85 2.72,4.88 2.95,4.9 3.25,4.89 4.15,4.84 4.59,4.81 5.47,4.8 5.7,4.82 6.26,4.86 6.6,4.97 6.8,5.17 7,5.37 7.03,5.62 6.91,5.97 L 6.88,6.09 c 0,0.05 0.1,-0.13 0.17,-0.3 A 1.6,1.6 0 0 0 6.84,4.14 4.07,4.07 0 0 0 3.61,2.76 Z m 1.32,2.25 c -0.2,0 -0.42,0.04 -0.64,0.12 A 4.03,4.03 0 0 0 1.92,7.93 C 1.86,8.21 1.9,8.37 2.04,8.51 c 0.05,0.05 0.15,0.1 0.35,0.22 0.36,0.19 0.52,0.3 0.8,0.58 L 3.4,9.5 C 3.59,9.6 3.75,9.35 3.95,8.69 L 4.13,8.05 C 4.42,6.97 4.54,6.58 4.74,6.17 4.86,5.93 4.96,5.77 5.1,5.64 5.27,5.47 5.42,5.4 5.61,5.4 a 0.9,0.9 0 0 1 0.18,0.02 c 0.1,0.03 0.26,0.1 0.38,0.2 0.06,0.03 0.1,0.06 0.11,0.05 C 6.29,5.66 6,5.39 5.89,5.32 5.59,5.12 5.27,5.01 4.93,5.02 Z m 5.46,0.24 C 10.28,5.25 10.11,5.33 9.87,5.49 9.67,5.63 9.5,5.76 8.97,6.19 8.15,6.84 7.74,7.12 7.34,7.32 6.8,7.58 6.42,7.58 6.17,7.3 A 0.95,0.95 0 0 1 5.97,6.98 6.07,6.07 0 0 0 5.92,6.83 L 5.9,6.8 v 0.06 a 1.84,1.84 0 0 0 0.31,0.88 c 0.1,0.13 0.28,0.3 0.4,0.39 0.27,0.18 0.65,0.3 1.02,0.35 a 4.35,4.35 0 0 0 2.96,-0.85 c 0.34,-0.27 0.46,-0.43 0.46,-0.62 0,-0.1 -0.02,-0.17 -0.16,-0.45 A 2.9,2.9 0 0 1 10.59,5.53 C 10.56,5.37 10.54,5.33 10.49,5.29 A 0.18,0.18 0 0 0 10.39,5.26 Z M 5.66,6.1 5.51,6.16 C 4.89,6.46 4.55,6.96 4.51,7.63 4.49,8.12 4.67,8.73 5,9.29 a 4.85,4.85 0 0 0 0.96,1.15 c 0.25,0.2 0.6,0.41 0.8,0.47 0.16,0.06 0.3,0.04 0.44,-0.06 0.04,-0.02 0.14,-0.11 0.24,-0.2 0.33,-0.3 0.49,-0.4 0.84,-0.58 C 8.41,10.01 8.51,9.95 8.53,9.93 8.62,9.84 8.58,9.73 8.43,9.58 A 6.88,6.88 0 0 0 7.23,8.76 C 6.49,8.3 6.06,8 5.78,7.76 5.23,7.28 5.06,6.9 5.23,6.55 5.28,6.45 5.46,6.25 5.59,6.16 5.64,6.13 5.67,6.11 5.66,6.1 Z"
     id="path2"
     inkscape:connector-curvature="0"
     style="fill:#ff7f2a" />
</svg>
